packages/katcn/src/icons/svg/folders-solid.svg

<svg width="24" height="25" viewBox="0 0 24 25" fill="none" xmlns="http://www.w3.org/2000/svg">
<path d="M20.5676 4.78809H14.827L13.3676 3.28809C12.7838 2.68809 11.9081 2.28809 11.0324 2.28809H7.43243C6.07027 2.28809 5 3.38809 5 4.78809V15.6881C5 17.0881 6.07027 18.2881 7.43243 18.2881H20.5676C21.9297 18.2881 23 17.1881 23 15.7881V7.28809C23 5.98809 21.9297 4.78809 20.5676 4.78809Z" fill="black"/>
<path d="M17.9655 20.1689H6.17241C4.41379 20.1689 3.06897 18.7914 3.06897 16.9901V7.34769C3.06897 6.71193 2.65517 6.28809 2.03448 6.28809C1.41379 6.28809 1 6.71193 1 7.34769V16.9901C1 19.957 3.27586 22.2881 6.17241 22.2881H17.9655C18.5862 22.2881 19 21.8642 19 21.2285C19 20.5927 18.4828 20.1689 17.9655 20.1689Z" fill="black"/>
</svg>

<svg xmlns="http://www.w3.org/2000/svg" fill="none" viewBox="0 0 24 25"><path fill="#000" d="M20.568 4.788h-5.741l-1.46-1.5c-.583-.6-1.459-1-2.335-1h-3.6C6.07 2.288 5 3.388 5 4.788v10.9c0 1.4 1.07 2.6 2.432 2.6h13.136c1.362 0 2.432-1.1 2.432-2.5v-8.5c0-1.3-1.07-2.5-2.432-2.5"/><path fill="#000" d="M17.966 20.169H6.171c-1.758 0-3.103-1.378-3.103-3.179V7.348c0-.636-.414-1.06-1.035-1.06-.62 0-1.034.424-1.034 1.06v9.642c0 2.967 2.276 5.298 5.172 5.298h11.794c.62 0 1.034-.424 1.034-1.06a1.05 1.05 0 0 0-1.035-1.06"/></svg>
